sharp/svg/location_city.svg

<svg xmlns="http://www.w3.org/2000/svg" width="24" height="24"><path fill="none" d="M0 0h24v24H0V0z"/><g fill="currentColor"><path d="M15 11V5l-3-3-3 3v2H3v14h18V11h-6zm-8 8H5v-2h2v2zm0-4H5v-2h2v2zm0-4H5V9h2v2zm6 8h-2v-2h2v2zm0-4h-2v-2h2v2zm0-4h-2V9h2v2zm0-4h-2V5h2v2zm6 12h-2v-2h2v2zm0-4h-2v-2h2v2z"/></g></svg>

<?xml version="1.0" encoding="utf-8"?>
<!-- Generator: Adobe Illustrator 19.1.0, SVG Export Plug-In . SVG Version: 6.00 Build 0)  -->
<svg version="1.1" xmlns="http://www.w3.org/2000/svg" xmlns:xlink="http://www.w3.org/1999/xlink" x="0px" y="0px" width="24px"
	 height="24px" viewBox="0 0 24 24" enable-background="new 0 0 24 24" xml:space="preserve">
<g id="Bounding_Boxes">
	<g id="ui_x5F_spec_x5F_header_copy_2">
	</g>
	<path fill="none" d="M0,0h24v24H0V0z"/>
</g>
<g id="Sharp" fill="currentColor">
	<path d="M15,11V5l-3-3L9,5v2H3v14h18V11H15z M7,19H5v-2h2V19z M7,15H5v-2h2V15z M7,11H5V9h2V11z M13,19h-2v-2h2V19z M13,15h-2v-2h2
		V15z M13,11h-2V9h2V11z M13,7h-2V5h2V7z M19,19h-2v-2h2V19z M19,15h-2v-2h2V15z"/>
</g>
</svg>
